X: 235
T: Tha Mi Sgith
R: Polka
M: 2/4
L: 1/8
P:Hebriden
K:Amin
"Am"AA a2 | "Em"ge g2 |"Am" e>d BA |"G" GA BG |
"Am"AA a2 |"Em" ge g2 |"E" e>d Be |1"Am" A2 A2:|2A2 AB/d/||
"Am"e>d BA |"G" G>A Bd |"Am" e>d BA |"G" B2 BB/d/ |
"Am"e>d BA |"G" GA Bd |"E" ed Be |1"Am" A2 AB/d/ :|2 A2 A2 ||
W:Why should I sit and sigh,
W:Puin’ bracken, Puin’ bracken
W:Why should I sit and sigh,
W:On the hillside dreary?
W:
W:When I see the plover rising
W:Or the curlew wheeling,
W:Then I trow my mortal lover,
W:Back to me is stealing.


